X:3594
T:Le samedi au soir
O:england
C:F. Paris: Carnet de bal
M:3/4
L:1/4
K:G
D|:G2A|B2c|d3-|d3|e2f|gf~e|d2g/g/|\
gfe|d3|e3|d3-|1 d2B:|2 dBc||
|:d2e|~dcB|c3|A3|c2d|~cBA|B3|G3|\
A2~B|GAG|F2G|A2~B|GAF|G3-|1 GBc:|2 G2 D||


